X:1
T:Title
L:1/8
Q:1/4=70
M:6/8
I:linebreak $
K:G
V:1 treble nm="Church Organ, Staff"
V:1
 GGA B2 B | ABA G2 D | BBc ddd | cdc .B3 | dcB dcB | A>Bc B2 B | dcB dcB | A>BA .G3 |$ ecB A>Bc | %9
w: By~M.~A.~F. * * * *|||||||||
 dcB AA>c | ecB Ad>g | dcB A2 G | BAG F>DD | BAG F>DD | GDE FAd |$ GFE .D3 | BAG efg | Adc B>AG | %18
w: |||||||||
 DGA B>cd | c2 A .G3 |] %20
w: ||
